svg/l/EH.svg

<svg width="32" height="24" viewBox="0 0 32 24" fill="none" xmlns="http://www.w3.org/2000/svg">
<g clip-path="url(#clip0_270_67359)">
<rect width="32" height="24" fill="white"/>
<path fill-rule="evenodd" clip-rule="evenodd" d="M0 0H32V24H0V0Z" fill="#F7FCFF"/>
<path fill-rule="evenodd" clip-rule="evenodd" d="M0 0V8H32V0H0Z" fill="#272727"/>
<path fill-rule="evenodd" clip-rule="evenodd" d="M0 16V24H32V16H0Z" fill="#5EAA22"/>
<path fill-rule="evenodd" clip-rule="evenodd" d="M0 0L16 12L0 24V0Z" fill="#E31D1C"/>
<path fill-rule="evenodd" clip-rule="evenodd" d="M21.6878 15.4771C21.6878 15.4771 19.4131 14.1023 19.4131 11.8305C19.4131 9.55872 21.6878 8.36357 21.6878 8.36357C20.6696 7.71755 17.1391 8.63953 17.1391 11.9045C17.1391 15.1695 20.6365 15.7728 21.6878 15.4771ZM23.5284 11.3125L22.2045 10.0721L22.6617 11.6557L21.3806 12.2626L22.9541 12.7748L23.6374 14.489L23.9363 12.9022L25.4905 13.2454L24.3145 12.097L24.7123 10.8717L23.5284 11.3125Z" fill="#E31D1C"/>
</g>
<defs>
<clipPath id="clip0_270_67359">
<rect width="32" height="24" fill="white"/>
</clipPath>
</defs>
</svg>

<svg width="32" height="24" fill="none" xmlns="http://www.w3.org/2000/svg">
  <mask id="a" maskUnits="userSpaceOnUse" x="0" y="0" width="32" height="24">
    <path fill="#fff" d="M0 0h32v24H0z"/>
  </mask>
  <g mask="url(#a)" fill-rule="evenodd" clip-rule="evenodd">
    <path d="M0 0h32v24H0V0z" fill="#F7FCFF"/>
    <path d="M0 0v8h32V0H0z" fill="#272727"/>
    <path d="M0 16v8h32v-8H0z" fill="#5EAA22"/>
    <path d="M0 0l16 12L0 24V0zm21.688 15.477s-2.275-1.375-2.275-3.646c0-2.272 2.275-3.467 2.275-3.467-1.018-.646-4.549.276-4.549 3.54 0 3.265 3.498 3.869 4.549 3.573zm1.84-4.165l-1.323-1.24.457 1.584-1.281.607 1.573.512.683 1.714.3-1.587 1.553.343-1.175-1.148.397-1.225-1.184.44z" fill="#E31D1C"/>
  </g>
</svg>
